packages/kaspersky-hexa-ui-icons/src/iconsSVGs/16/StatusDiamondSolid.svg

<svg width="16" height="16" viewBox="0 0 16 16" fill="none" xmlns="http://www.w3.org/2000/svg">
<path fill-rule="evenodd" clip-rule="evenodd" d="M8 15C11.866 15 15 11.866 15 8C15 4.13401 11.866 1 8 1C4.13401 1 1 4.13401 1 8C1 11.866 4.13401 15 8 15ZM4.60825 6.09149L5.86362 4.52336C5.91566 4.45836 5.99275 4.42078 6.07404 4.42078H9.92596C10.0072 4.42078 10.0843 4.45836 10.1364 4.52336L11.3918 6.09149C11.5404 6.27719 11.4136 6.55913 11.1813 6.55913H4.81866C4.58644 6.55913 4.45958 6.27719 4.60825 6.09149ZM4.55352 7.72563C4.42084 7.53731 4.55004 7.27191 4.77439 7.27191H11.2256C11.45 7.27191 11.5792 7.53731 11.4465 7.72563L8.22087 12.3043C8.11144 12.4596 7.88856 12.4596 7.77913 12.3043L4.55352 7.72563Z" fill="black"/>
</svg>

<svg xmlns="http://www.w3.org/2000/svg" width="16" height="16" fill="none" viewBox="0 0 16 16"><path fill="#000" fill-rule="evenodd" d="M8 15c3.866 0 7-3.134 7-7s-3.134-7-7-7-7 3.134-7 7 3.134 7 7 7M4.6083 6.0915l1.2553-1.5681a.27.27 0 0 1 .2104-.1026h3.852a.27.27 0 0 1 .2104.1026l1.2554 1.568c.1486.1858.0218.4677-.2105.4677H4.8187c-.2323 0-.3591-.282-.2104-.4676m-.0548 1.6341c-.1327-.1883-.0035-.4537.2209-.4537h6.4512c.2244 0 .3536.2654.2209.4537l-3.2256 4.5787a.2677.2677 0 0 1-.4418 0z"/></svg>
